lib/healthicons/icons/solid/typography/ghana.svg

<svg fill="none" height="48" viewBox="0 0 48 48" width="48" xmlns="http://www.w3.org/2000/svg"><path clip-rule="evenodd" d="m26 8c0-1.10457-.8954-2-2-2s-2 .89543-2 2v2.114c-1.1472.1655-2.2753.4738-3.3576.9221-2.5581 1.0596-4.7446 2.854-6.283 5.1563-1.5383 2.3023-2.3594 5.009-2.3594 7.778 0 2.7689.8211 5.4757 2.3594 7.778 1.5384 2.3022 3.7249 4.0967 6.283 5.1563 1.0823.4483 2.2104.7565 3.3576.9221v2.1732c0 1.1046.8954 2 2 2s2-.8954 2-2v-2.1732c.2444-.0353.4882-.0771.7313-.1254 2.7157-.5402 5.2103-1.8736 7.1682-3.8315.781-.7811.781-2.0474 0-2.8285-.7811-.781-2.0474-.781-2.8284 0-1.3867 1.3868-3.1503 2.3349-5.0711 2.7269v-19.5959c1.9208.3921 3.6844 1.3402 5.0711 2.7269.781.7811 2.0473.7811 2.8284 0 .781-.781.781-2.0474 0-2.8284-1.9579-1.958-4.4525-3.2913-7.1682-3.8315-.2431-.0484-.4869-.0902-.7313-.1254zm-4 6.1724c-.6225.1271-1.2343.3137-1.8268.5592-1.8273.7569-3.3891 2.0386-4.4879 3.6831s-1.6853 3.5779-1.6853 5.5557.5865 3.9112 1.6853 5.5557 2.6606 2.9262 4.4879 3.6831c.5925.2454 1.2043.4321 1.8268.5591z" fill="#333" fill-rule="evenodd"/></svg>

<svg width="48" height="48" viewBox="0 0 48 48" fill="none" xmlns="http://www.w3.org/2000/svg">
<path fill-rule="evenodd" clip-rule="evenodd" d="M26 8C26 6.89543 25.1046 6 24 6C22.8954 6 22 6.89543 22 8V10.114C20.8528 10.2795 19.7247 10.5878 18.6424 11.0361C16.0843 12.0957 13.8978 13.8901 12.3594 16.1924C10.8211 18.4947 10 21.2014 10 23.9704C10 26.7393 10.8211 29.4461 12.3594 31.7484C13.8978 34.0506 16.0843 35.8451 18.6424 36.9047C19.7247 37.353 20.8528 37.6612 22 37.8268V40C22 41.1046 22.8954 42 24 42C25.1046 42 26 41.1046 26 40V37.8268C26.2444 37.7915 26.4882 37.7497 26.7313 37.7014C29.447 37.1612 31.9416 35.8278 33.8995 33.8699C34.6805 33.0888 34.6805 31.8225 33.8995 31.0414C33.1184 30.2604 31.8521 30.2604 31.0711 31.0414C29.6844 32.4282 27.9208 33.3763 26 33.7683L26 14.1724C27.9208 14.5645 29.6844 15.5126 31.0711 16.8993C31.8521 17.6804 33.1184 17.6804 33.8995 16.8993C34.6805 16.1183 34.6805 14.8519 33.8995 14.0709C31.9416 12.1129 29.447 10.7796 26.7313 10.2394C26.4882 10.191 26.2444 10.1492 26 10.114V8ZM22 14.1724C21.3775 14.2995 20.7657 14.4861 20.1732 14.7316C18.3459 15.4885 16.7841 16.7702 15.6853 18.4147C14.5865 20.0592 14 21.9926 14 23.9704C14 25.9482 14.5865 27.8816 15.6853 29.5261C16.7841 31.1706 18.3459 32.4523 20.1732 33.2092C20.7657 33.4546 21.3775 33.6413 22 33.7683L22 14.1724Z" fill="#333333"/>
</svg>
